X: 333
T:Prime of Life. JaW.332
M:2/4
Q:100
S:James Winder Ms, Lancashire, 1835-41
R:Country Dance
O:England
A:Wyresdale,Lancashire
H:1/8
Z:vmp.Chris Partington, Aug 2004
K:F
c2cB|A2cf|fccA|F3A|GFGA|BABc|dccE|{E}F4:|!
.c2.f2|.e2.f2|.e2.f2|agg2|b2a2|g2f2|ecde|gff2|!
.c2.f2|.e2.f2|.e2.f2|(ag)g2|(ba).g.a|(gf).e.f|ecde|gff2|]
